src/next/cmd/32/ruler.svg

<svg enable-background="new 0 0 128 128" height="32" viewBox="0 0 32 32" width="32" xmlns="http://www.w3.org/2000/svg" xmlns:xlink="http://www.w3.org/1999/xlink"><linearGradient id="a" gradientUnits="userSpaceOnUse" x1="88.591797" x2="71.262016" y1="96.592697" y2="79.262917"><stop offset="0" stop-color="#fff"/><stop offset="1" stop-color="#555753"/></linearGradient><linearGradient id="b" gradientUnits="userSpaceOnUse" x1="85.219681" x2="61.336319" y1="93.219681" y2="69.336319"><stop offset="0"/><stop offset="1" stop-color="#393b38"/></linearGradient><linearGradient id="c" gradientUnits="userSpaceOnUse" x1="96" x2="88.000198" y1="104" y2="96.000198"><stop offset="0" stop-color="#888a85"/><stop offset=".0072" stop-color="#8c8e89"/><stop offset=".0673" stop-color="#abaca9"/><stop offset=".1347" stop-color="#c5c6c4"/><stop offset=".2115" stop-color="#dbdbda"/><stop offset=".3012" stop-color="#ebebeb"/><stop offset=".4122" stop-color="#f7f7f6"/><stop offset=".5679" stop-color="#fdfdfd"/><stop offset="1" stop-color="#fff"/></linearGradient><radialGradient id="d" cx="102" cy="112.3047" gradientTransform="matrix(.9787234 0 0 .9818182 1.361705 1.163636)" gradientUnits="userSpaceOnUse" r="139.55859"><stop offset="0" stop-color="#535557"/><stop offset=".11366145" stop-color="#898a8c"/><stop offset=".20296688" stop-color="#ececec"/><stop offset=".2363" stop-color="#fafafa"/><stop offset=".2722" stop-color="#fff"/><stop offset=".5313" stop-color="#fafafa"/><stop offset=".8449" stop-color="#ebecec"/><stop offset="1" stop-color="#e1e2e3"/></radialGradient><radialGradient id="e" cx="102" cy="112.3047" gradientUnits="userSpaceOnUse" r="139.5585"><stop offset="0" stop-color="#00537d"/><stop offset=".0151" stop-color="#186389"/><stop offset=".0558" stop-color="#558ca8"/><stop offset=".0964" stop-color="#89afc3"/><stop offset=".1357" stop-color="#b3ccd8"/><stop offset=".1737" stop-color="#d4e2e9"/><stop offset=".2099" stop-color="#ecf2f5"/><stop offset=".2435" stop-color="#fafcfd"/><stop offset=".2722" stop-color="#fff"/></radialGradient><filter id="f"><feGaussianBlur stdDeviation="1.0394514"/></filter><filter id="g"><feGaussianBlur stdDeviation=".50063244"/></filter><filter id="h"><feGaussianBlur stdDeviation=".40750996"/></filter><filter id="i"><feGaussianBlur stdDeviation=".4901192"/></filter><filter id="j"><feGaussianBlur stdDeviation=".90565481"/></filter><radialGradient id="k" cx="64" cy="44.604801" gradientTransform="matrix(.895843 0 0 .3333333 6.666047 37.131734)" gradientUnits="userSpaceOnUse" r="60"><stop offset="0" stop-color="#75511a"/><stop offset="1" stop-color="#382509"/></radialGradient><g transform="matrix(.25 0 0 .25 0 .000025)"><path d="m23 9 .04082 112h61.13118c.53 0 1.039-.211 1.414-.586l32.828-32.828c.375-.375.586-.884.586-1.414v-77.172z" filter="url(#f)" opacity=".306849" transform="matrix(1.0416667 0 0 1.0357143 -9.958333 -3.321534)"/><path d="m24.919999 10.931136v108.137934l58.676001-.0001c.53 0 1.039-.211 1.414-.586l31.484-31.765936c.375-.375.586-.884.586-1.414v-74.371898z" filter="url(#g)" opacity=".89589" transform="matrix(1.0416667 0 0 1.0357143 -9.958333 -3.321534)"/><path d="m23 9.9655172.040816 111.0344828h61.131184c.53 0 1.039-.211 1.414-.586l32.828-32.828c.375-.375.586-.884.586-1.414v-76.2064828z" filter="url(#f)" opacity=".306849" transform="matrix(1.0416667 0 0 1.0357143 -9.958333 -3.321534)"/><path d="m16.000002 8v112h61.172c.53 0 1.039-.211 1.414-.586l32.827998-32.828c.375-.375.586-.884.586-1.414v-77.172z" fill="url(#e)"/><path d="m19.678725 10.7c-.539276 0-.978723.440836-.978723.981818l-.7 105.336362c0 .54197.439447.98182.978723.98182h57.913022c.257404 0 .509915-.10407.691957-.28767l32.129526-32.23113c.18303-.1836.28677-.435927.28677-.694145v-73.805237c0-.540982-.43847-.981818-.97872-.981818z" fill="url(#d)"/><g transform="translate(.000002)"><path d="m111.414 86.586c.25-.25-26.379-1.586-31.414-1.586-1.654 0-3 1.346-3 3 0 5.035 1.336 31.664 1.586 31.414z" fill="url(#a)" filter="url(#h)" opacity=".1"/><path d="m111.414 86.586c.375-.375-21.97-.586-31.414-.586-1.103 0-2 .897-2 2 0 9.444.211 31.789.586 31.414z" filter="url(#j)" opacity=".2"/><path d="m111.414 86.586c.239-.239-21.607.414-31.414.414-.553 0-1 .447-1 1 0 9.807-.653 31.653-.414 31.414z" fill="url(#b)" filter="url(#i)" opacity=".1"/><path d="m78.586 119.414s11.914-9.914 17.414-15.414 15.414-17.414 15.414-17.414-21.164 1.414-31.414 1.414c0 10.25-1.414 31.414-1.414 31.414z" fill="url(#c)"/></g><rect fill="url(#k)" height="12" rx="6" width="120" x="4" y="52"/><path d="m8 56h112v4h-112z" fill="#debc85"/></g></svg>

<?xml version="1.0" encoding="UTF-8" standalone="no"?>
<svg
   xmlns:dc="http://purl.org/dc/elements/1.1/"
   xmlns:cc="http://creativecommons.org/ns#"
   xmlns:rdf="http://www.w3.org/1999/02/22-rdf-syntax-ns#"
   xmlns:svg="http://www.w3.org/2000/svg"
   xmlns="http://www.w3.org/2000/svg"
   xmlns:sodipodi="http://sodipodi.sourceforge.net/DTD/sodipodi-0.dtd"
   xmlns:inkscape="http://www.inkscape.org/namespaces/inkscape"
   enable-background="new 0 0 128 128"
   height="32"
   viewBox="0 0 32 32"
   width="32"
   version="1.1"
   id="svg111"
   sodipodi:docname="ruler.svg"
   inkscape:version="0.92.4 (unknown)"
   inkscape:export-filename="/home/rizmut/Dokumen/Rizmut/Github/libreoffice-style-karasa-jaga/build/next/cmd/32/ruler.png"
   inkscape:export-xdpi="96"
   inkscape:export-ydpi="96">
  <metadata
     id="metadata117">
    <rdf:RDF>
      <cc:Work
         rdf:about="">
        <dc:format>image/svg+xml</dc:format>
        <dc:type
           rdf:resource="http://purl.org/dc/dcmitype/StillImage" />
        <dc:title></dc:title>
        <dc:title></dc:title>
      </cc:Work>
    </rdf:RDF>
  </metadata>
  <defs
     id="defs115" />
  <sodipodi:namedview
     pagecolor="#ffffff"
     bordercolor="#666666"
     borderopacity="1"
     objecttolerance="10"
     gridtolerance="10"
     guidetolerance="10"
     inkscape:pageopacity="0"
     inkscape:pageshadow="2"
     inkscape:window-width="1366"
     inkscape:window-height="714"
     id="namedview113"
     showgrid="true"
     inkscape:zoom="15.0625"
     inkscape:cx="16"
     inkscape:cy="21.311203"
     inkscape:window-x="0"
     inkscape:window-y="28"
     inkscape:window-maximized="1"
     inkscape:current-layer="svg111">
    <inkscape:grid
       type="xygrid"
       id="grid119" />
  </sodipodi:namedview>
  <linearGradient
     id="a"
     gradientUnits="userSpaceOnUse"
     x1="88.591797"
     x2="71.262016"
     y1="96.592697"
     y2="79.262917">
    <stop
       offset="0"
       stop-color="#fff"
       id="stop2" />
    <stop
       offset="1"
       stop-color="#555753"
       id="stop4" />
  </linearGradient>
  <linearGradient
     id="b"
     gradientUnits="userSpaceOnUse"
     x1="85.219681"
     x2="61.336319"
     y1="93.219681"
     y2="69.336319">
    <stop
       offset="0"
       id="stop7" />
    <stop
       offset="1"
       stop-color="#393b38"
       id="stop9" />
  </linearGradient>
  <linearGradient
     id="c"
     gradientUnits="userSpaceOnUse"
     x1="96"
     x2="88.000198"
     y1="104"
     y2="96.000198">
    <stop
       offset="0"
       stop-color="#888a85"
       id="stop12" />
    <stop
       offset=".0072"
       stop-color="#8c8e89"
       id="stop14" />
    <stop
       offset=".0673"
       stop-color="#abaca9"
       id="stop16" />
    <stop
       offset=".1347"
       stop-color="#c5c6c4"
       id="stop18" />
    <stop
       offset=".2115"
       stop-color="#dbdbda"
       id="stop20" />
    <stop
       offset=".3012"
       stop-color="#ebebeb"
       id="stop22" />
    <stop
       offset=".4122"
       stop-color="#f7f7f6"
       id="stop24" />
    <stop
       offset=".5679"
       stop-color="#fdfdfd"
       id="stop26" />
    <stop
       offset="1"
       stop-color="#fff"
       id="stop28" />
  </linearGradient>
  <radialGradient
     id="d"
     cx="102"
     cy="112.3047"
     gradientTransform="matrix(0.9787234,0,0,0.9818182,1.361705,1.163636)"
     gradientUnits="userSpaceOnUse"
     r="139.55859">
    <stop
       offset="0"
       stop-color="#535557"
       id="stop31" />
    <stop
       offset=".11366145"
       stop-color="#898a8c"
       id="stop33" />
    <stop
       offset=".20296688"
       stop-color="#ececec"
       id="stop35" />
    <stop
       offset=".2363"
       stop-color="#fafafa"
       id="stop37" />
    <stop
       offset=".2722"
       stop-color="#fff"
       id="stop39" />
    <stop
       offset=".5313"
       stop-color="#fafafa"
       id="stop41" />
    <stop
       offset=".8449"
       stop-color="#ebecec"
       id="stop43" />
    <stop
       offset="1"
       stop-color="#e1e2e3"
       id="stop45" />
  </radialGradient>
  <radialGradient
     id="e"
     cx="102"
     cy="112.3047"
     gradientUnits="userSpaceOnUse"
     r="139.5585">
    <stop
       offset="0"
       stop-color="#00537d"
       id="stop48" />
    <stop
       offset=".0151"
       stop-color="#186389"
       id="stop50" />
    <stop
       offset=".0558"
       stop-color="#558ca8"
       id="stop52" />
    <stop
       offset=".0964"
       stop-color="#89afc3"
       id="stop54" />
    <stop
       offset=".1357"
       stop-color="#b3ccd8"
       id="stop56" />
    <stop
       offset=".1737"
       stop-color="#d4e2e9"
       id="stop58" />
    <stop
       offset=".2099"
       stop-color="#ecf2f5"
       id="stop60" />
    <stop
       offset=".2435"
       stop-color="#fafcfd"
       id="stop62" />
    <stop
       offset=".2722"
       stop-color="#fff"
       id="stop64" />
  </radialGradient>
  <filter
     id="f">
    <feGaussianBlur
       stdDeviation="1.0394514"
       id="feGaussianBlur67" />
  </filter>
  <filter
     id="g">
    <feGaussianBlur
       stdDeviation=".50063244"
       id="feGaussianBlur70" />
  </filter>
  <filter
     id="h">
    <feGaussianBlur
       stdDeviation=".40750996"
       id="feGaussianBlur73" />
  </filter>
  <filter
     id="i">
    <feGaussianBlur
       stdDeviation=".4901192"
       id="feGaussianBlur76" />
  </filter>
  <filter
     id="j">
    <feGaussianBlur
       stdDeviation=".90565481"
       id="feGaussianBlur79" />
  </filter>
  <radialGradient
     id="k"
     cx="64"
     cy="44.604801"
     gradientTransform="matrix(0.895843,0,0,0.3333333,6.666047,37.131734)"
     gradientUnits="userSpaceOnUse"
     r="60">
    <stop
       offset="0"
       stop-color="#75511a"
       id="stop82" />
    <stop
       offset="1"
       stop-color="#382509"
       id="stop84" />
  </radialGradient>
  <g
     id="g136"
     transform="matrix(0.25,0,0,0.25,0,2.4890332e-5)">
    <path
       id="path87"
       transform="matrix(1.0416667,0,0,1.0357143,-9.958333,-3.321534)"
       d="m 23,9 0.04082,112 H 84.172 c 0.53,0 1.039,-0.211 1.414,-0.586 L 118.414,87.586 C 118.789,87.211 119,86.702 119,86.172 V 9 Z"
       inkscape:connector-curvature="0"
       style="opacity:0.30684904;filter:url(#f)" />
    <path
       id="path89"
       transform="matrix(1.0416667,0,0,1.0357143,-9.958333,-3.321534)"
       d="M 24.919999,10.931136 V 119.06907 l 58.676001,-1e-4 c 0.53,0 1.039,-0.211 1.414,-0.586 l 31.484,-31.765936 c 0.375,-0.375 0.586,-0.884 0.586,-1.414 V 10.931136 Z"
       inkscape:connector-curvature="0"
       style="opacity:0.89589;filter:url(#g)" />
    <path
       id="path91"
       transform="matrix(1.0416667,0,0,1.0357143,-9.958333,-3.321534)"
       d="M 23,9.9655172 23.040816,121 H 84.172 c 0.53,0 1.039,-0.211 1.414,-0.586 L 118.414,87.586 C 118.789,87.211 119,86.702 119,86.172 V 9.9655172 Z"
       inkscape:connector-curvature="0"
       style="opacity:0.30684904;filter:url(#f)" />
    <path
       id="path93"
       d="m 16.000002,8 v 112 h 61.172 c 0.53,0 1.039,-0.211 1.414,-0.586 L 111.414,86.586 C 111.789,86.211 112,85.702 112,85.172 V 8 Z"
       style="fill:url(#e)"
       inkscape:connector-curvature="0" />
    <path
       id="path95"
       d="m 19.678725,10.7 c -0.539276,0 -0.978723,0.440836 -0.978723,0.981818 l -0.7,105.336362 c 0,0.54197 0.439447,0.98182 0.978723,0.98182 h 57.913022 c 0.257404,0 0.509915,-0.10407 0.691957,-0.28767 L 109.71323,85.4812 C 109.89626,85.2976 110,85.045273 110,84.787055 V 10.981818 C 110,10.440836 109.56153,10 109.02128,10 Z"
       style="fill:url(#d)"
       inkscape:connector-curvature="0" />
    <g
       id="g105"
       transform="translate(2e-6)">
      <path
         id="path97"
         d="M 111.414,86.586 C 111.664,86.336 85.035,85 80,85 c -1.654,0 -3,1.346 -3,3 0,5.035 1.336,31.664 1.586,31.414 z"
         style="opacity:0.1;fill:url(#a);filter:url(#h)"
         inkscape:connector-curvature="0" />
      <path
         id="path99"
         d="M 111.414,86.586 C 111.789,86.211 89.444,86 80,86 c -1.103,0 -2,0.897 -2,2 0,9.444 0.211,31.789 0.586,31.414 z"
         inkscape:connector-curvature="0"
         style="opacity:0.2;filter:url(#j)" />
      <path
         id="path101"
         d="M 111.414,86.586 C 111.653,86.347 89.807,87 80,87 c -0.553,0 -1,0.447 -1,1 0,9.807 -0.653,31.653 -0.414,31.414 z"
         style="opacity:0.1;fill:url(#b);filter:url(#i)"
         inkscape:connector-curvature="0" />
      <path
         id="path103"
         d="m 78.586,119.414 c 0,0 11.914,-9.914 17.414,-15.414 5.5,-5.5 15.414,-17.414 15.414,-17.414 0,0 -21.164,1.414 -31.414,1.414 0,10.25 -1.414,31.414 -1.414,31.414 z"
         style="fill:url(#c)"
         inkscape:connector-curvature="0" />
    </g>
    <rect
       id="rect107"
       y="52"
       x="4"
       width="120"
       rx="6"
       height="12"
       style="fill:url(#k)" />
    <path
       id="path109"
       d="m 8,56 h 112 v 4 H 8 Z"
       inkscape:connector-curvature="0"
       style="fill:#debc85" />
  </g>
</svg>
